src/images/icons/geo.svg

<svg width="20" height="20" viewBox="0 0 20 20" fill="none" xmlns="http://www.w3.org/2000/svg">
<path fill-rule="evenodd" clip-rule="evenodd" d="M4.08337 8.4569C4.08337 6.39227 4.83656 4.90122 5.92007 3.92026C7.01635 2.92775 8.49694 2.41674 10 2.41675C11.5031 2.41675 12.9837 2.92776 14.08 3.92028C15.1635 4.90125 15.9167 6.39229 15.9167 8.4569C15.9167 11.1965 14.2331 13.5961 12.524 15.3117C12.2132 15.6238 12.0338 15.801 11.8309 15.9452C11.6434 16.0784 11.4127 16.1982 11.0069 16.3304C10.8415 16.3843 10.46 16.4312 10.0002 16.4312C9.54045 16.4312 9.15891 16.3843 8.99356 16.3305C8.58775 16.1983 8.35698 16.0784 8.16949 15.9452C7.96662 15.8011 7.78721 15.6239 7.47632 15.3118C5.76716 13.5962 4.08337 11.1965 4.08337 8.4569ZM17.4167 8.4569C17.4167 5.99476 16.5032 4.09073 15.0867 2.80831C13.683 1.53744 11.8303 0.916753 10 0.916748C8.16981 0.916743 6.31706 1.53743 4.91334 2.80829C3.49685 4.09071 2.58337 5.99475 2.58337 8.4569C2.58337 11.7995 4.61466 14.5647 6.41367 16.3705L6.43819 16.3951C6.71873 16.6768 6.98363 16.9427 7.30068 17.168C7.64234 17.4108 8.0194 17.5907 8.52898 17.7567C8.92681 17.8863 9.50264 17.9312 10.0002 17.9312C10.4978 17.9312 11.0737 17.8863 11.4715 17.7567C11.9811 17.5907 12.3581 17.4107 12.6998 17.1679C13.0168 16.9426 13.2817 16.6766 13.5622 16.395L13.5867 16.3704C15.3856 14.5646 17.4167 11.7994 17.4167 8.4569ZM8.25004 8.33344C8.25004 7.36694 9.03354 6.58344 10 6.58344C10.9665 6.58344 11.75 7.36694 11.75 8.33344C11.75 9.29994 10.9665 10.0834 10 10.0834C9.03354 10.0834 8.25004 9.29994 8.25004 8.33344ZM10 5.08344C8.20512 5.08344 6.75004 6.53852 6.75004 8.33344C6.75004 10.1284 8.20512 11.5834 10 11.5834C11.795 11.5834 13.25 10.1284 13.25 8.33344C13.25 6.53852 11.795 5.08344 10 5.08344Z" fill="#F03E3E"/>
</svg>

<svg width="20" height="20" fill="none" xmlns="http://www.w3.org/2000/svg"><path fill-rule="evenodd" clip-rule="evenodd" d="M4.083 8.457c0-2.065.754-3.556 1.837-4.537C7.016 2.928 8.497 2.417 10 2.417c1.503 0 2.984.51 4.08 1.503 1.084.981 1.837 2.472 1.837 4.537 0 2.74-1.684 5.14-3.393 6.855-.31.312-.49.489-.693.633-.188.133-.418.253-.824.385-.165.054-.547.101-1.007.101-.46 0-.841-.047-1.006-.1-.406-.133-.637-.253-.825-.386-.202-.144-.382-.321-.693-.633-1.709-1.716-3.393-4.115-3.393-6.855Zm13.334 0c0-2.462-.914-4.366-2.33-5.649C13.683 1.538 11.83.917 10 .917c-1.83 0-3.683.62-5.087 1.891-1.416 1.283-2.33 3.187-2.33 5.649 0 3.342 2.032 6.108 3.83 7.913l.025.025c.28.282.546.548.863.773.341.243.718.423 1.228.589.398.13.974.174 1.471.174.498 0 1.074-.045 1.472-.174.51-.166.886-.346 1.228-.59.317-.224.582-.49.862-.772l.025-.025c1.799-1.805 3.83-4.57 3.83-7.913ZM8.25 8.333a1.75 1.75 0 1 1 3.5 0 1.75 1.75 0 0 1-3.5 0ZM10 5.083a3.25 3.25 0 1 0 0 6.5 3.25 3.25 0 0 0 0-6.5Z" fill="#F03E3E"/></svg>
